X:17
T: Graf und Nonne (Die Nonne)
N: Q0155P
O: Mitteleuropa, Schweiz, Kanton Wallis, Visp, Randa
R: Ballade, Standesunterschied, vergebliche Werbung, Liebe, Klage
M: 4/4
L: 1/8
K: D
A2 | D2FAD2F2 | E2A2G2
E2 | C2EGC2E2 | D2A2F2
D2 | D2DDD2G2 | B4dc
B2 | A2AAG2C2 | D2z4

